X: 28257
T: Mrs. Judge
R: jig
M: 6/8
K: Adorian
|:Ace Ace|c d/c/B/A/ BEE|GgB Aae|c d/c/B/c/ A3:|
EGc EGc|c/B/A/G/A/B/ cGE|=F =F/E/D/C/ DGD|EAE A2 G|
a/g/e/g/ a g/e/d/e/ g|e/d/c/d/e/c/ dBG|c>BG d>cB|c/e/EG A3|

